dist/icons/svgs/arrow-up-outline.svg

<svg xmlns="http://www.w3.org/2000/svg" width="24" height="24" fill="currentcolor" class="icon-arrow-up-outline" viewBox="0 0 24 24">
  <path d="M13.1643 3.5625L19.7268 10.4375C20.0783 10.8281 20.0783 11.4141 19.6877 11.7656C19.2971 12.1172 18.7111 12.1172 18.3596 11.7266L13.4377 6.53125V19.8125C13.4377 20.3594 13.008 20.75 12.5002 20.75C11.9533 20.75 11.5627 20.3594 11.5627 19.8125V6.53125L6.60176 11.7266C6.25019 12.1172 5.66426 12.1172 5.27363 11.7656C4.88301 11.4141 4.88301 10.7891 5.23457 10.4375L11.7971 3.5625C11.9924 3.36719 12.2268 3.25 12.5002 3.25C12.7346 3.25 12.9689 3.36719 13.1643 3.5625Z"/>
</svg>

<svg xmlns="http://www.w3.org/2000/svg" width="24" height="24" fill="currentColor" class="icon-arrow-up-outline" viewBox="0 0 24 24">
  <path d="m13.164 3.563 6.563 6.874c.351.391.351.977-.04 1.329-.39.351-.976.351-1.327-.04l-4.922-5.195v13.282c0 .546-.43.937-.938.937-.547 0-.937-.39-.937-.937V6.53l-4.961 5.196c-.352.39-.938.39-1.328.039a.93.93 0 0 1-.04-1.328l6.563-6.876a.98.98 0 0 1 .703-.312c.235 0 .469.117.664.313"/>
</svg>
